!!!!SEGMENT: pl-wn--mus-iii-89-376--001_zelenski-wladyslaw--dwie-piesni-do-slow-adama-mickiewicza-polaly-sie-lzy.krn
!!!cenid: 18xx:3785
!!!COM: Żeleński, Władysław
!!!COM-rismID: pe41024455
!!!CDT: 1837/07/06-1921/01/23
!!!CNT: Polish
!!!GTL: Dwie pieśni do słów Adama Mickiewicza
!!!OTL: Polały się łzy
!!!PDT:
!!!AGN:
!!!SMS-siglum: PL-Wn
!!!SMS-shelfmark: Mus.III.89.376
!!!SMS-shelfwork: 001 G
!!!SMS-variant:
!!!SMS-altvar:
!!!NIFC-rismSourceID:
!!!NIFC-rismChildID:
!!!NIFC-islandoraID:
!!!URL-pdf-islandora:
!!!URL-scan: https://polona.pl/item/dwie-piesnislow-do-slow-adama-mickiewicza,NjcyODg2MDU/0 @EN{Scan on Polona} @PL{Skany w portalu Polona}
!!!ONB-nifc:
!!!AIN: 1 piano 1 vox
!!!key: a
**kern	**kern	**dynam	**kern	**text	**dynam
*part2	*part2	*part2	*part1	*part1	*part1
*staff3	*staff2	*	*staff1	*staff1	*
*I"Fortepian.	*I"Fortepian.	*	*I"Śpiew.	*	*
*I'pf	*I'pf	*	*I'V	*	*
*ICklav	*ICklav	*	*ICvox	*	*
*Ipiano	*	*	*Ivox	*	*
*clefF4	*clefG2	*	*clefG2	*	*
*k[]	*k[]	*	*k[]	*	*
*a:	*a:	*	*a:	*	*
*M3/4	*M3/4	*	*M3/4	*	*
!	!	!	!LO:TX:a:B:t=Andante sostenuto.	!	!
*xywh-3:349,1334,2547,609	*xywh-3:349,1334,2547,609	*	*	*	*
4r	(>4e/	p	4r	.	.
=1	=1	=1	=1	=1	=1
[2.AAA/ [2.AA	4c/ 4e 4a	.	2.r	.	.
.	4B/ 4d 4g	.	.	.	.
.	4A/ 4c 4f	.	.	.	.
=2	=2	=2	=2	=2	=2
*	*^	*	*	*	*
*	*	*xywh-3:349,1334,2547,609	*	*	*	*
2.AAA/_ 2.AA_	8e/L	4G\ 4B	.	2.r	.	.
.	8d/	.	.	.	.	.
.	8c/	4A\	<	.	.	.
.	8d/J	.	.	.	.	.
.	4B/ 4e	4G\	.	.	.	.
=3	=3	=3	=3	=3	=3	=3
2.AAA/_ 2.AA_	4c/	8A\L	.	2.r	.	.
.	.	8G\J	.	.	.	.
.	8A/L	4F\	.	.	.	.
.	8B/J)	.	.	.	.	.
.	4c/	4E\	[[	.	.	.
=4	=4	=4	=4	=4	=4	=4
*^	*	*	*	*	*	*
*	*xywh-3:349,1334,2547,609	*	*	*	*	*	*
2.AAA\] 2.AA]	2E/	[<4B/	(>4B/	>	4r	.	.
.	.	4B\]	[>2e/)	.	4r	.	.
*	*	*	*	*	*xywh-3:319,500,2567,860	*	*
!	!	!	!	!	!	!	!LO:DY:a
.	8F#X/L	4d\	.	.	4e/	Po-	p
.	8G#X/J	.	.	.	.	.	.
*v	*v	*	*	*	*	*	*
!!LO:LB:g=original	!	!	!	!	!	!
=5	=5	=5	=5	=5	=5	=5
*xywh-3:297,2212,2530,584	*xywh-3:297,2212,2530,584	*xywh-3:297,2212,2530,584	*	*xywh-3:362,1931,2417,302	*	*
!	!	!	!	!LO:TX:a:i:t=dolce	!	!
[2.AAA/ [2.AA	2A\	(>4c/ 4e]	] pp	4a/	-la-	.
!	!LO:TX:b:i:t=molto legato	!	!	!	!	!
.	.	2a/	.	4g/	-ły	.
.	8B\L	.	.	4f/	się	.
.	8c\J	.	.	.	.	.
=6	=6	=6	=6	=6	=6	=6
2.AAA/_ 2.AA_	8b/L	4d\	.	2e/	łzy	.
.	8cc/J	.	.	.	.	.
.	4a/	[2c\	.	.	.	.
.	8g/L	.	.	4e/	me	.
.	8f/J)	.	.	.	.	.
=7	=7	=7	=7	=7	=7	=7
!	!	!	!	!	!	!LO:DY:a
2.AAA/_ 2.AA_	8e/L	2c\]	<	(4.a/	czy-	<
.	8d/J	.	.	.	.	.
.	4e/	.	.	.	.	.
.	.	.	.	8cc\)	.	.
.	4f#X/	8d\L	.	8b\	-ste	.
.	.	8c\J	[[	8a/	rzę-	[[
=8	=8	=8	=8	=8	=8	=8
!	!	!	!	!	!	!LO:DY:a
2.AAA/] 2.AA]	8g#X/L	8B\L	>	4b\	-si-	>
.	8a/J	8c\J	.	.	.	.
.	4b/	2d\	]]	4e/	-ste,	.
.	8f#X/L	.	.	4e/	Na	]
.	8g#/J	.	.	.	.	.
=9	=9	=9	=9	=9	=9	=9
[2.AA/ [2.E	4a/	2.c\	.	(4a/	me	.
.	4e/	.	.	4g/)	.	.
.	4a/	.	.	4f/	dzie-	.
=10	=10	=10	=10	=10	=10	=10
*^	*	*	*	*	*	*
(2E/]	2.AA\_	8b/L	4d\	.	2e/	-ciń-	.
.	.	8cc/J	.	.	.	.	.
.	.	4a/	[2c\	.	.	.	.
[4A/)	.	8g/L	.	.	4e/	-stwo	.
.	.	8f/J	.	.	.	.	.
!!LO:LB:g=original	!	!	!	!	!	!	!
=11	=11	=11	=11	=11	=11	=11	=11
*xywh-3:230,3082,2649,524	*xywh-3:230,3082,2649,524	*xywh-3:230,3082,2649,524	*xywh-3:230,3082,2649,524	*	*xywh-3:347,2789,2439,318	*	*
!	!	!LO:TX:a:i:t=espress.	!	!	!	!	!
2A\]	2.AA\]	8e/L	2c\]	<	([4a/	siel-	.
.	.	8d/J	.	.	.	.	.
.	.	4e/	.	.	8a\L]	.	.
.	.	.	.	.	8cc\J)	.	.
4D\	.	4f#X/	8d\L	.	8b\	-skie,	.
.	.	.	8c\J	[[	8a/	a	.
*v	*v	*	*	*	*	*	*
=12	=12	=12	=12	=12	=12	=12
!	!LO:TX:b:i:t=dolce	!	!	!	!	!
[2.GG/ [2.D	(4g/	2B\ 2g	.	4b\	niel-	.
.	4dd/)	.	.	4g/	-skie	.
.	(8e/L 8cc	4g\	.	4r	.	.
.	8d/J 8b	.	.	.	.	.
=13	=13	=13	=13	=13	=13	=13
2.GG/_ 2.D_	8c/L 8a	4f#X\	.	2.r	.	.
.	8d/J) 8b	.	.	.	.	.
.	(4g/	2B\ 2g	.	.	.	.
.	4dd/)	.	.	.	.	.
=14	=14	=14	=14	=14	=14	=14
2.GG/_ 2.D_	(8e/L 8cc	2g\	.	2.r	.	.
.	8d/J 8b	.	.	.	.	.
.	4c/ 4a	.	.	.	.	.
.	4f#X/) 4b 4d	4d\yy	.	.	.	.
=15	=15	=15	=15	=15	=15	=15
2.GG/] 2.D]	2.g/	8B\L	<	4r	.	.
.	.	8A\	.	.	.	.
.	.	8G\	.	4r	.	.
.	.	8B\	.	.	.	.
.	.	8d\	.	8r	.	.
.	.	8fn\J	[[	8g/	Na	.
=16	=16	=16	=16	=16	=16	=16
!	!LO:TX:b:i:t=espress.	!	!	!LO:TX:a:i:t=espress.	!	!
2.CC/ 2.C	2e\	4d/ 4b-X	.	(4b-X\	mo-	.
.	.	4c/ 4a	.	4a/)	.	.
.	4e/yy	4B-X/ 4e 4g#X	.	4g#X/	-ję	.
!!LO:LB:g=original	!	!	!	!	!	!
=17	=17	=17	=17	=17	=17	=17
*	*	*^	*	*	*	*
*xywh-4:237,810,2719,483	*xywh-4:237,810,2719,483	*xywh-4:237,810,2719,483	*xywh-4:237,810,2719,483	*	*xywh-4:307,429,2592,392	*	*
[2.FF/ [2.C	[2.a/	4e\	[<2.A\	.	4a/	mło-	.
.	.	4d\	.	.	4f/	-dość	.
.	.	4c\	.	.	8r	.	.
.	.	.	.	.	8a/	i	.
=18	=18	=18	=18	=18	=18	=18	=18
2.FF/] 2.C]	2.a/]	2.A\]	4d\	.	(4.dd\	gór-	.
.	.	.	4c\	.	.	.	.
.	.	.	.	.	8cc\)	.	.
.	.	.	4Bn\ 4d	.	8a/	-ną	.
.	.	.	.	.	8f/	i	.
*	*	*v	*v	*	*	*	*
=19	=19	=19	=19	=19	=19	=19
2CC/ 2C	(4a/	2c\ 2e	.	4a/	chmur-	.
.	4g/)	.	.	4g/	-ną,	.
!	!LO:TX:b:i:t=cresc.	!	!	!	!	!
4CC/ 4C	4c/ 4e 4g	4r	.	8r	.	.
!	!	!	!	!LO:TX:a:i:t=cresc.	!	!
.	.	.	.	8g/	Na	.
*	*v	*v	*	*	*	*
=20	=20	=20	=20	=20	=20
4GGG/ 4GG	4d/ 4b-X	.	(4b-X\	wiek	.
4AAA/ 4AA	4c#X/ 4a	.	4a/)	.	.
4BBB-X/ 4BB-X	4d/ [<4g	.	4g/	mój	.
=21	=21	=21	=21	=21	=21
*	*^	*	*	*	*
*	*	*xywh-4:237,810,2719,483	*	*	*	*
2AAA/ 2AA	(4g/] 4cc	2.c\	.	4cc\	mę-	.
.	4f/)	.	.	4f/	-zki	.
4DD/ 4D	8f/L	.	.	8r	.	.
.	8g/J	.	.	8cc\	na	.
=22	=22	=22	=22	=22	=22	=22
!	!	!	!	!LO:TX:a:i:t=con duolo	!	!
2.EE-X/ 2.E-X	(2a-X/	4c\	<	([4ee-X\	wiek	.
.	.	4B-X\	.	8ee-\L]	.	.
.	.	.	.	8dd-X\J)	.	.
.	(4g/)	4d-X\	.	(8cc\L	mój	.
.	.	.	[[	8b-X\J)	.	.
!!LO:LB:g=original	!	!	!	!	!	!
=23	=23	=23	=23	=23	=23	=23
*xywh-4:326,1524,2592,531	*xywh-4:326,1524,2592,531	*xywh-4:326,1524,2592,531	*	*xywh-4:302,1265,2617,269	*	*
2.EE-X/ 2.E-X	8g/L)	[2c\	>	4cc\	klęs-	.
.	8a-X/J	.	.	.	.	.
.	(4e-X/	.	.	4a-X/	-ki	.
.	8.cc/L) 8.c	8.c/L]yy	.	4r	.	.
.	16cc/Jk 16c	16c/Jkyy	] p	.	.	.
=24	=24	=24	=24	=24	=24	=24
(4GG-X/ 4G-X	4b-X\	2c/ [>2cc	.	2.r	.	.
4FF/ 4F	[<4a\	.	.	.	.	.
4EE-X/ 4E-X	4g\ 4a]	8.cc/L]	.	.	.	.
.	.	16cc/Jk	.	.	.	.
=25	=25	=25	=25	=25	=25	=25
2DD/) 2D	(4cc/	2f\ 2a-X	.	2.r	.	.
.	4bn/)	.	.	.	.	.
4r	8.f/L 8.F	8.F/Lyy	pp	.	.	.
.	16f/Jk 16F	16F/Jkyy	.	.	.	.
=26	=26	=26	=26	=26	=26	=26
(4CC/ 4C	2F/ [2f	4e-X\	<	2.r	.	.
4BBB-X/ 4BB-X	.	(4d\	.	.	.	.
4AAA/ 4AA	8.f/L]	4c\) 4d	.	.	.	.
.	16f/Jk	.	[[	.	.	.
=27	=27	=27	=27	=27	=27	=27
2.GGG#X/) 2.GG#X	(4f/	2.Bn\ 2.d	>	4r	.	.
.	2e/)	.	.	4r	.	.
!	!	!	!	!LO:TX:a:i:t=dolce	!	!
.	.	.	.	4f/	Po-	.
=28	=28	=28	=28	=28	=28	=28
[2.AAA/ [2.AA	(4c/ 4e	2A\	] pp	4a/	-la-	.
.	2a/)	.	.	4g/	-ły	.
.	.	8B\L	.	4f/	się	.
.	.	8c\J	.	.	.	.
!!LO:LB:g=original	!	!	!	!	!	!
=29	=29	=29	=29	=29	=29	=29
*xywh-4:307,2270,2663,539	*xywh-4:307,2270,2663,539	*xywh-4:307,2270,2663,539	*	*xywh-4:333,2029,2595,272	*	*
2.AAA/_ 2.AA_	(8b/L 8d	8d/Lyy	.	2e/	łzy	.
.	8cc/J 8e	8e/Jyy	.	.	.	.
.	4a/	[2c\	.	.	.	.
.	8g/L	.	.	4e/	me	.
.	8f/J	.	.	.	.	.
=30	=30	=30	=30	=30	=30	=30
!	!	!	!	!	!	!LO:DY:a
2.AAA/_ 2.AA_	8e/L	2c\]	<	(4.a/	czy-	<
.	8d/J	.	.	.	.	.
.	4e/	.	.	.	.	.
.	.	.	.	8cc\)	.	.
.	4f#X/	8d\L	.	8b\	-ste	.
.	.	8c\J	[[	8a/	rzę-	[[
=31	=31	=31	=31	=31	=31	=31
2.AAA/] 2.AA]	8B/L) 8g#X	2.e\	<	4b\	-si-	.
.	8c/J 8a	.	.	.	.	.
.	4d/ 4b	.	.	4e/	-ste	.
.	(8c/L 8a	.	.	4e/	Po-	.
.	8d/J 8b	.	.	.	.	.
=32	=32	=32	=32	=32	=32	=32
!	!	!	!	!LO:TX:a:i:t=molto espress.	!	!
[2.AAA/ [2.AA	4cc/ 4e	4e/yy	[	4ee\	-la-	.
.	8f/L	4d\	.	4dd\	-ły	.
.	8g/J	.	.	.	.	.
.	4a/	4c\	.	4cc\	się	.
=33	=33	=33	=33	=33	=33	=33
(4AAA/] 4AA]	8d/L	[2B\	.	2b\	łzy	.
.	8f/J	.	.	.	.	.
2GGG/) 2GG	[4e/	.	.	.	.	.
!	!	!	!	!	!	!LO:DY:a
.	8e/L]) 8b	4B/]	.	4b\	me	p
.	16rc	.	.	.	.	.
.	16b/Jk	.	p	.	.	.
=34	=34	=34	=34	=34	=34	=34
2FFF/ 2FF	(4dd/	2d\ 2a	.	4dd\	czy-	.
.	4a/)	.	.	2a/	-ste	.
!	!	!	!LO:DY:b	!	!	!
4AAA/ 4AA	(8a/L 8ff	4cc#X\	sfz	.	.	.
.	8g/J 8ee	.	.	.	.	.
!!LO:LB:g=original	!	!	!	!	!	!
=35	=35	=35	=35	=35	=35	=35
*xywh-4:274,3027,2734,683	*xywh-4:274,3027,2734,683	*xywh-4:274,3027,2734,683	*	*xywh-4:295,2799,2636,264	*	*
2DD/ 2D	4dd/	[>4f\ 4a	>	4r	.	.
.	4cc/	4e\ 4f]	.	4r	.	.
(4DD/ 4D	4b-X/)yy	4b-X 4d/ 4f	.	8r	.	.
!	!	!	!	!	!	!LO:DY:a
.	.	.	]]	8b-X\	Po-	p
=36	=36	=36	=36	=36	=36	=36
!	!	!	!	!	!	!LO:DY:a
2FF/) 2F	(2A/ 2a	4c\	p <	2a/	-la-	<
.	.	4d\	.	.	.	.
4EE/ 4E	4g#X/)	4d\ 4e	.	8bn\	-ły	.
.	.	.	[[	8cc\	się	[[
*	*v	*v	*	*	*	*
=37	=37	=37	=37	=37	=37
!	!LO:TX:b:i:t=poco	!	!	!	!
[2.AAA/ [2.AA	(>4c/ 4e 4a	.	[2.a/	łzy.	.
!	!LO:TX:b:i:t=cresc.	!	!	!	!
.	4B/ 4d 4g	.	.	.	.
.	4A/ 4c 4f	.	.	.	.
=38	=38	=38	=38	=38	=38
*	*^	*	*	*	*
*	*xywh-4:274,3027,2734,683	*xywh-4:274,3027,2734,683	*	*	*	*
2.AAA/_ 2.AA_	8B/L 8e	4G\ 4B	.	4a/]	.	.
.	8d/	.	.	.	.	.
.	8c/	4A\	.	4r	.	.
.	8d/J	.	.	.	.	.
.	4e/)	4G\ 4B	.	4r	.	.
=39	=39	=39	=39	=39	=39	=39
2.AAA/] 2.AA]	(4c/	8A\L	.	2.r	.	.
.	.	8G\J	.	.	.	.
!	!	!	!LO:HP:b:t=dim.	!	!	!
.	8A/L	4F\	>	.	.	.
.	8B/J	.	.	.	.	.
.	4c/	4E\	.	.	.	.
=40	=40	=40	=40	=40	=40	=40
(4DDD/ 4DD	(2A/) 2B	(4F\	>	2.r	.	.
2EEE/) 2EE	.	[2E\)	.	.	.	.
.	4G#X/ 4c	.	]]	.	.	.
=41	=41	=41	=41	=41	=41	=41
2AAA;</ 2AA	2A;/)	2E\]	ppp	2.r	.	.
4ryy	4ryy	4ryy	.	.	.	.
*	*v	*v	*	*	*	*
==	==	==	==	==	==
*-	*-	*-	*-	*-	*-
!!!system-decoration: s1{(s2,s3)}
!!!RDF**kern: > = above
!!!RDF**kern: < = below
!!!ENC: Marta Opryszak
!!!END: 2022-03-24
!!!ENC: Natalia Wrzos
!!!END: 2022-03-27
!!!IIIF: https://polona.pl/iiif/item/NjcyODg2MDU/manifest.json
!!!ENC-iiif: Emilia Ziętek
!!!END-iiif: 2022-08-18
!!!YEC: Copyright 2022 Narodowy Instytut Fryderyka Chopina (https://polishscores.org)
!!!YEM: License CC-BY-4.0 (https://creativecommons.org/licenses/by/4.0)
